X:1
T:Title
%%score { ( 1 3 ) | 2 }
L:1/8
M:3/4
K:Bb
V:1 treble nm="Grand Piano"
V:3 treble 
V:2 bass 
V:1
 z2 z[Q:1/4=86] [DF] [B,D][CE] | [DF]3 [B,D] [DF][DB] | [Fd]3 [DFB] AB | c3 F GF |[M:3/8] [DF]3 | %5
 [DF][B,D][CE] |[M:3/4] [DF]3 [B,D] [DF][DB] | [Fd]3 [FB] [Fc][Fd] | [=Ec]3 [EB] [EA][EG] | %9
[M:3/8] F3 |[M:4/4] z2 z c- c4 | z2 z B- B4 | z2 z e- e4 | z2 z d- d4 | z2 z f- f4 | z2 z B- B4 | %16
 G[GB]GF- F2 dd- |[M:5/8] d c2 [DB]2- | [DB]3 z2 |] %19
V:2
 z2 z [B,,F,] [B,,F,][B,,F,] | [B,,B,]3 [B,,F,] [B,,B,][B,,B,] | [B,,B,]3 B,, [F,CE][F,B,D] | %3
 [F,A,E]3 [F,A,E] [F,A,E][F,A,E] |[M:3/8] [B,,B,]3 | [B,,B,][B,,F,][B,,F,] | %6
[M:3/4] [B,,B,]3 [B,,F,] [B,,B,][B,,B,] | [B,,B,]3 [D,B,] [C,A,][B,,B,] | %8
 [C,B,]3 [C,G,] [C,C][C,B,] |[M:3/8] [F,A,]3 | %10
[M:4/4] [F,A,E][F,A,E][F,A,E][F,A,E] [F,A,][F,A,][F,A,][F,C] | %11
 [F,B,G][F,A,F][F,A,E][B,,B,] [B,,F,][B,,G,][B,,G,][B,,F,] | %12
 [F,A,E][F,B,E][F,A,E][F,A,F] [F,C][F,B,][F,A,][F,A,] | %13
 [F,C][F,B,][F,A,][B,,B,] [B,,B,][B,,B,][B,,B,][B,,B,] | [B,F][B,F][B,CF][B,DB] [B,D][CE][CE][DF] | %15
 [B,F_A][B,FA][K:bass][D,B,][E,E] [E,E][E,E][E,E][E,E] | %16
 [E,B,E][E,B,][E,B,E][F,B,D]- [F,B,D]2 [F,B,F][F,B,F]- |[M:5/8] [F,B,F] [F,A,E]2 [B,,B,]2- | %18
 [B,,B,]3 z2 |] %19
V:3
 x6 | x6 | x6 | x6 |[M:3/8] x3 | x3 |[M:3/4] x6 | x6 | x6 |[M:3/8] x3 |[M:4/4] FG .F2 EEEA | %11
 cccD DEED | FG .F2 AGFF | [Ae][Ge][Fe]F FFFF | dd .e2 BAA_A | dd[_Ac]G GGGG | x8 |[M:5/8] x5 | %18
 x5 |] %19

